lib/flags/st-sao-tome-and-principe.svg

<svg xmlns="http://www.w3.org/2000/svg" fill="none" aria-hidden="true" viewBox="0 0 42 30"><g id="Country=ST - Sao Tome and Principe, Size=sm (36x24)" filter="url(#filter0_dd_91_24975)"><g clip-path="url(#clip0_91_24975)"><g id="flag"><mask id="mask0_91_24975" width="36" height="24" x="3" y="2" maskUnits="userSpaceOnUse" style="mask-type:alpha"><rect id="mask" width="36" height="24" x="3" y="2" fill="white"/></mask><g mask="url(#mask0_91_24975)"><g id="contents"><path id="background" fill="#FBCD17" fill-rule="evenodd" d="M3 2V26H39V2H3Z" clip-rule="evenodd"/><path id="top" fill="#73BE4A" fill-rule="evenodd" d="M3 2V10H39V2H3Z" clip-rule="evenodd"/><path id="bottom" fill="#73BE4A" fill-rule="evenodd" d="M3 18V26H39V18H3Z" clip-rule="evenodd"/><path id="triangle" fill="#C51918" fill-rule="evenodd" d="M3 2V26L14.25 14L3 2Z" clip-rule="evenodd"/><path id="Star 5" fill="#272727" fill-rule="evenodd" d="M22.127 15.8707L20.0225 17L20.5025 14.7962L18.75 13.1469L21.123 13.0578L22.127 11L23.131 13.0578H25.5L23.7515 14.7962L24.2779 17L22.127 15.8707Z" clip-rule="evenodd"/><path id="Star 5_2" fill="#272727" fill-rule="evenodd" d="M31.127 15.8707L29.0225 17L29.5025 14.7962L27.75 13.1469L30.123 13.0578L31.127 11L32.131 13.0578H34.5L32.7515 14.7962L33.2779 17L31.127 15.8707Z" clip-rule="evenodd"/></g></g></g></g></g><defs><filter id="filter0_dd_91_24975" width="42" height="30" x="0" y="0" color-interpolation-filters="sRGB" filterUnits="userSpaceOnUse"><feFlood flood-opacity="0" result="BackgroundImageFix"/><feColorMatrix in="SourceAlpha" result="hardAlpha" values="0 0 0 0 0 0 0 0 0 0 0 0 0 0 0 0 0 0 127 0"/><feOffset dy="1"/><feGaussianBlur stdDeviation="1"/><feColorMatrix values="0 0 0 0 0.0627451 0 0 0 0 0.0941176 0 0 0 0 0.156863 0 0 0 0.06 0"/><feBlend in2="BackgroundImageFix" result="effect1_dropShadow_91_24975"/><feColorMatrix in="SourceAlpha" result="hardAlpha" values="0 0 0 0 0 0 0 0 0 0 0 0 0 0 0 0 0 0 127 0"/><feOffset dy="1"/><feGaussianBlur stdDeviation="1.5"/><feColorMatrix values="0 0 0 0 0.0627451 0 0 0 0 0.0941176 0 0 0 0 0.156863 0 0 0 0.1 0"/><feBlend in2="effect1_dropShadow_91_24975" result="effect2_dropShadow_91_24975"/><feBlend in="SourceGraphic" in2="effect2_dropShadow_91_24975" result="shape"/></filter><clipPath id="clip0_91_24975"><rect width="36" height="24" x="3" y="2" fill="white" rx="2"/></clipPath></defs></svg>

<svg xmlns="http://www.w3.org/2000/svg" fill="none" aria-hidden="true" viewBox="0 0 42 30"><g filter="url(#a)"><g clip-path="url(#b)"><mask id="c" width="36" height="24" x="3" y="2" maskUnits="userSpaceOnUse" style="mask-type:alpha"><path fill="#fff" d="M3 2h36v24H3z"/></mask><g fill-rule="evenodd" clip-rule="evenodd" mask="url(#c)"><path fill="#FBCD17" d="M3 2v24h36V2H3Z"/><path fill="#73BE4A" d="M3 2v8h36V2H3Zm0 16v8h36v-8H3Z"/><path fill="#C51918" d="M3 2v24l11.25-12L3 2Z"/><path fill="#272727" d="M22.127 15.87 20.023 17l.48-2.204-1.753-1.65 2.373-.088L22.127 11l1.004 2.058H25.5l-1.748 1.738.526 2.204-2.151-1.13Zm9 0L29.023 17l.48-2.204-1.753-1.65 2.373-.088L31.127 11l1.004 2.058H34.5l-1.748 1.738.526 2.204-2.151-1.13Z"/></g></g></g><defs><clipPath id="b"><rect width="36" height="24" x="3" y="2" fill="#fff" rx="2"/></clipPath><filter id="a" width="42" height="30" x="0" y="0" color-interpolation-filters="sRGB" filterUnits="userSpaceOnUse"><feFlood flood-opacity="0" result="BackgroundImageFix"/><feColorMatrix in="SourceAlpha" result="hardAlpha" values="0 0 0 0 0 0 0 0 0 0 0 0 0 0 0 0 0 0 127 0"/><feOffset dy="1"/><feGaussianBlur stdDeviation="1"/><feColorMatrix values="0 0 0 0 0.0627451 0 0 0 0 0.0941176 0 0 0 0 0.156863 0 0 0 0.06 0"/><feBlend in2="BackgroundImageFix" result="effect1_dropShadow_91_24975"/><feColorMatrix in="SourceAlpha" result="hardAlpha" values="0 0 0 0 0 0 0 0 0 0 0 0 0 0 0 0 0 0 127 0"/><feOffset dy="1"/><feGaussianBlur stdDeviation="1.5"/><feColorMatrix values="0 0 0 0 0.0627451 0 0 0 0 0.0941176 0 0 0 0 0.156863 0 0 0 0.1 0"/><feBlend in2="effect1_dropShadow_91_24975" result="effect2_dropShadow_91_24975"/><feBlend in="SourceGraphic" in2="effect2_dropShadow_91_24975" result="shape"/></filter></defs></svg>
